src/oreo_red_cursors/pencil.svg

<svg xmlns="http://www.w3.org/2000/svg" id="svg2" width="32" height="32" version="1.1">
 <defs id="defs4">
  <filter id="filter874" style="color-interpolation-filters:sRGB" width="1.12" height="1.12" x="-.06" y="-.06">
   <feGaussianBlur id="feGaussianBlur876" stdDeviation=".55"/>
  </filter>
  <filter id="filter826" style="color-interpolation-filters:sRGB" width="1.144" height="1.144" x="-.07" y="-.07">
   <feGaussianBlur id="feGaussianBlur828" stdDeviation=".66"/>
  </filter>
  <filter id="filter860" style="color-interpolation-filters:sRGB" width="1.192" height="1.192" x="-.1" y="-.1">
   <feGaussianBlur id="feGaussianBlur862" stdDeviation=".96"/>
  </filter>
  <filter id="filter859" style="color-interpolation-filters:sRGB" width="1.192" height="1.192" x="-.1" y="-.1">
   <feGaussianBlur id="feGaussianBlur861" stdDeviation=".88"/>
  </filter>
 </defs>
 <path id="path821" style="opacity:0.3;filter:url(#filter859)" d="M 24.23856,7.112657 C 23.616623,6.4907203 22.791436,6.3129733 22.389007,6.7154029 l -0.528813,0.5288121 -1.093737,1.0937382 -0.726149,0.7261494 1.123403,1.1234034 2.148782,2.148783 1.123404,1.123403 0.726149,-0.726149 1.093738,-1.093738 0.528813,-0.528813 C 27.187026,10.708563 27.009279,9.8833764 26.387343,9.2614397 Z M 19.160673,9.9437363 6.8548289,22.249582 c 0,0 -2.3545659,5.556978 -1.7579775,6.153567 0.5965883,0.596588 6.1535666,-1.757979 6.1535666,-1.757979 L 23.556263,14.339326 Z"/>
 <path id="path825" style="opacity:1;fill:#F44336" d="M 24.23856,5.6126572 C 23.616623,4.9907205 22.791436,4.8129735 22.389007,5.2154031 l -0.528813,0.5288121 -1.093737,1.0937382 -0.726149,0.7261494 1.123403,1.1234033 2.148782,2.1487829 1.123404,1.123403 0.726149,-0.726149 1.093738,-1.093738 0.528813,-0.5288128 C 27.187026,9.2085632 27.009279,8.3833766 26.387343,7.7614399 Z M 19.160673,8.4437365 6.8548289,20.749582 c 0,0 -2.3545659,5.556978 -1.7579775,6.153567 0.5965883,0.596588 6.1535666,-1.757979 6.1535666,-1.757979 L 23.556263,12.839326 Z"/>
</svg>

<svg xmlns="http://www.w3.org/2000/svg" viewBox="0 0 32 32"><defs><filter id="a" width="1.192" height="1.192" x="-.1" y="-.1" color-interpolation-filters="sRGB"><feGaussianBlur stdDeviation=".88"/></filter></defs><path d="M24.2386 7.1127c-.622-.622-1.4472-.7997-1.8496-.3973l-.5288.5288-1.0937 1.0938-.7262.7261 1.1234 1.1234 2.1488 2.1488 1.1234 1.1234.7261-.7262 1.0938-1.0937.5288-.5288c.4024-.4024.2247-1.2276-.3973-1.8496zm-5.078 2.831L6.8549 22.2496s-2.3545 5.557-1.758 6.1535c.5966.5966 6.1536-1.758 6.1536-1.758l12.3059-12.3058z" opacity=".3" filter="url(#a)"/><path d="M24.2386 5.6127c-.622-.622-1.4472-.7997-1.8496-.3973l-.5288.5288-1.0937 1.0938-.7262.7261 1.1234 1.1234 2.1488 2.1488 1.1234 1.1234.7261-.7262 1.0938-1.0937.5288-.5288c.4024-.4024.2247-1.2276-.3973-1.8496zm-5.078 2.831L6.8549 20.7496s-2.3545 5.557-1.758 6.1535c.5966.5966 6.1536-1.758 6.1536-1.758l12.3059-12.3058z" fill="#F44336"/></svg>
